symbols/web/network_wifi_3_bar/materialsymbolsrounded/network_wifi_3_bar_wght300_48px.svg

<svg xmlns="http://www.w3.org/2000/svg" height="48" width="48"><path d="M10.35 23.75q2.95-2.3 6.35-3.575Q20.1 18.9 24 18.9t7.325 1.275Q34.75 21.45 37.7 23.75l5.5-5.5q-4.2-3.25-9-5.125T24 11.25q-5.4 0-10.2 1.875Q9 15 4.8 18.25ZM24 40q-.3 0-.55-.1-.25-.1-.45-.35L2.4 19q-.4-.4-.375-.975.025-.575.475-.925 4.45-3.8 9.9-5.95Q17.85 9 24 9q6.15 0 11.6 2.15 5.45 2.15 9.9 5.95.45.35.475.925Q46 18.6 45.6 19L25 39.55q-.2.25-.45.35-.25.1-.55.1Z"/></svg>

<svg xmlns="http://www.w3.org/2000/svg" height="48" width="48"><path d="M10.35 23.75Q13.3 21.45 16.7 20.175Q20.1 18.9 24 18.9Q27.9 18.9 31.325 20.175Q34.75 21.45 37.7 23.75L43.2 18.25Q39 15 34.2 13.125Q29.4 11.25 24 11.25Q18.6 11.25 13.8 13.125Q9 15 4.8 18.25ZM24 40Q23.7 40 23.45 39.9Q23.2 39.8 23 39.55L2.4 19Q2 18.6 2.025 18.025Q2.05 17.45 2.5 17.1Q6.95 13.3 12.4 11.15Q17.85 9 24 9Q30.15 9 35.6 11.15Q41.05 13.3 45.5 17.1Q45.95 17.45 45.975 18.025Q46 18.6 45.6 19L25 39.55Q24.8 39.8 24.55 39.9Q24.3 40 24 40Z"/></svg>
